images/svg/sing UP.svg

<svg width="15" height="17" viewBox="0 0 15 17" fill="none" xmlns="http://www.w3.org/2000/svg">
<path fill-rule="evenodd" clip-rule="evenodd" d="M0 10.2892H3.99648V11.1556L3.997 11.1749L4.00048 11.231L4.00279 11.2497L4.00511 11.2678L4.00743 11.2866L4.01026 11.3046L4.01309 11.3234L4.01657 11.3414L4.02056 11.3595L4.02224 11.368L4.02455 11.3771L4.02687 11.3856L4.02919 11.3952L4.03151 11.4037L4.03382 11.4133L4.03614 11.4213L4.04129 11.4393L4.04709 11.4563L4.05288 11.4739L4.05919 11.4915L4.07181 11.5254L4.07928 11.5423L4.08623 11.5593L4.0937 11.5757L4.10992 11.6086L4.11855 11.625L4.12718 11.6408L4.14572 11.6725L4.15499 11.6878L4.16478 11.7031L4.18564 11.7337L4.19607 11.7484L4.21796 11.7777L4.24113 11.806L4.25324 11.8197L4.25955 11.8277L4.26534 11.8334L4.27229 11.8413L4.27745 11.847L4.2844 11.855L4.29766 11.868L4.31041 11.881L4.32367 11.8941L4.36539 11.9316L4.37981 11.9435L4.39423 11.9549L4.40981 11.9674C4.46286 12.0083 4.52004 12.044 4.5812 12.0746C4.59446 12.0814 4.60772 12.0876 4.62098 12.0938C5.00174 12.2654 5.44932 12.2044 5.76722 11.9363L8.91575 9.28552C9.15345 9.08554 9.29018 8.79362 9.29018 8.486C9.29018 8.17826 9.15344 7.88595 8.91575 7.68583L5.76722 5.03503C5.69344 4.97267 5.61206 4.9217 5.52669 4.88198L5.51111 4.87515L5.49501 4.86832L5.48806 4.8649L5.47312 4.85921L5.45754 4.85301L5.44145 4.84682L5.43398 4.84454L5.4184 4.83885L5.40346 4.83379L5.36999 4.82367L5.36303 4.82202L5.34745 4.81747L5.33136 4.81355L5.31462 4.80963L5.30766 4.80799L5.29092 4.80457L5.27483 4.80116L5.25809 4.79837L5.24084 4.79559L5.23453 4.79445L5.21663 4.79167L5.20105 4.79002L5.18431 4.78775L5.17735 4.78724L5.16062 4.7856L5.14388 4.78446L5.12662 4.78332L5.10937 4.78281H5.10306L5.0858 4.78231H5.04602L5.02876 4.78281L5.01151 4.78395L4.99425 4.78446L4.977 4.7861L4.97121 4.78661L4.95395 4.78825L4.93721 4.7899L4.91996 4.79217L4.90154 4.79496L4.89639 4.79546L4.87734 4.79888L4.8624 4.80166L4.84515 4.80508L4.83935 4.80621L4.80587 4.81406L4.78862 4.81861L4.77137 4.82367L4.76621 4.82481L4.74832 4.8305L4.73274 4.83505L4.71548 4.84074L4.71033 4.84302L4.69359 4.84871L4.67685 4.85491L4.66076 4.86174L4.6435 4.86857L4.63835 4.87085L4.62226 4.87819C4.61415 4.8816 4.60616 4.88552 4.59805 4.88957C4.58878 4.89412 4.57899 4.89868 4.56972 4.90374L4.55247 4.91284C4.53573 4.92195 4.51899 4.93156 4.50289 4.94168L4.48615 4.95193C4.2894 5.07778 4.14119 5.26245 4.06277 5.47559L4.05994 5.48293C4.05762 5.48913 4.05595 5.49482 4.05363 5.50102L4.05015 5.51126C4.03972 5.54301 4.0311 5.57476 4.02363 5.60765C4.02131 5.61789 4.01899 5.62801 4.01732 5.63876C4.00521 5.69998 3.99891 5.76285 3.99826 5.82685V6.68304H0.00177829V0.550732L0.00229334 0.537704L0.00345221 0.523031L0.00396727 0.517339C0.0137534 0.403501 0.0581756 0.299147 0.126809 0.214778L0.133118 0.206303L0.160931 0.175567L0.181662 0.155202L0.190933 0.147234L0.211792 0.129019L0.219905 0.122821C0.305919 0.055404 0.412536 0.0117642 0.529065 0.0021503L0.534216 0.00164435L0.549152 0.000505952L0.563573 0H0.57851H12.5218C13.1789 0 13.8093 0.256645 14.2743 0.712899C14.7386 1.16963 15 1.78905 15 2.4344V14.5656C15 15.2111 14.7387 15.8304 14.2743 16.2871C13.8093 16.7432 13.1788 17 12.5218 17H0.561698L0.548951 16.9995L0.534014 16.9984L0.528864 16.9979C0.412332 16.9882 0.30559 16.9446 0.219703 16.8772L0.211592 16.871L0.190732 16.8528L0.180946 16.8443L0.158413 16.8222L0.151459 16.8142L0.132917 16.7937L0.126608 16.7852C0.057978 16.7007 0.0135534 16.5965 0.00376658 16.4827L0.00325127 16.477L0.0020924 16.4623L0.00157735 16.4481V10.2896L0 10.2892ZM5.68948 1.13282L9.50533 1.98966C10.5252 2.2186 11.2487 3.10997 11.2487 4.13794V12.861C11.2487 13.889 10.5253 14.7804 9.50533 15.0093L5.68948 15.8662H12.5202C12.8714 15.8662 13.2084 15.729 13.457 15.4853C13.705 15.241 13.8448 14.9101 13.8448 14.565V2.43376C13.8448 2.08871 13.7052 1.75768 13.457 1.51343C13.2084 1.26981 12.8716 1.13256 12.5202 1.13256H5.68948V1.13282Z" fill="white"/>
</svg>

<svg xmlns="http://www.w3.org/2000/svg" width="15" height="17" fill="none"><path fill="#fff" fill-rule="evenodd" d="M0 10.29h3.996v.866l.001.019.003.056.003.019.002.018.002.019.003.018.003.018.004.018.004.019.001.008.003.01.002.008.002.01.003.008.002.01.002.007.005.018.006.017.006.018.006.018.013.033.007.017.007.017.008.017.016.033.009.016.008.016.019.031.009.016.01.015.02.03.011.015.022.03.023.028.012.014.007.008.005.005.007.008.005.006.007.008.014.013.012.013.014.013.041.038.015.011.014.012.016.012a1.048 1.048 0 0 0 .211.127c.38.171.828.11 1.146-.158l3.149-2.65a1.045 1.045 0 0 0 0-1.6L5.767 5.035a1.075 1.075 0 0 0-.24-.153l-.016-.007-.016-.007-.007-.003-.015-.006-.015-.006-.017-.006-.007-.002-.016-.006-.015-.005-.033-.01-.007-.002-.016-.005-.016-.003-.016-.004-.007-.002-.017-.003-.016-.004-.017-.003-.017-.002-.006-.002-.018-.002L5.2 4.79l-.017-.002h-.007l-.016-.002-.017-.002h-.017l-.018-.001h-.097l-.018.001-.017.002h-.006l-.017.002-.017.002-.017.002-.018.003h-.006l-.019.004-.015.003-.017.003-.006.001-.033.008-.017.005-.018.005h-.005l-.018.006-.015.005-.018.006-.005.002-.016.006-.017.006-.016.007-.017.007-.006.002-.016.007a.412.412 0 0 0-.024.012l-.028.014-.018.009a.918.918 0 0 0-.05.029l-.016.01c-.197.126-.345.31-.423.524l-.003.007-.006.018-.004.01c-.01.032-.019.064-.026.097l-.007.03a1.022 1.022 0 0 0-.019.189v.856H.002V.538L.003.523.004.517A.554.554 0 0 1 .127.215L.133.206l.028-.03.02-.02.01-.009L.21.13.22.123a.577.577 0 0 1 .31-.12L.533.001.55 0 .564 0h11.958c.657 0 1.287.257 1.752.713.465.457.726 1.076.726 1.721v12.132c0 .645-.261 1.264-.726 1.721a2.504 2.504 0 0 1-1.752.713H.549l-.015-.002H.529a.578.578 0 0 1-.31-.12l-.007-.007-.021-.018-.01-.009-.023-.022-.007-.008-.018-.02-.006-.009a.554.554 0 0 1-.123-.302v-.006l-.002-.015V10.29H0Zm5.69-9.157 3.815.857a2.212 2.212 0 0 1 1.744 2.148v8.723c0 1.028-.724 1.92-1.744 2.148l-3.816.857h6.831c.351 0 .688-.137.937-.38.248-.245.388-.576.388-.921V2.434c0-.345-.14-.676-.388-.92a1.339 1.339 0 0 0-.937-.381H5.69Z" clip-rule="evenodd"/></svg>
